X: 32
T: Missa brevis &mdash; Credo
C: Gaspar van Weerbeke
%%abc-version 2.0
%%abcx-abcm2ps-target-version 5.9.1 (29 Sep 2008)
%%abc-creator hum2abc beta
%%abcx-conversion-date 2022/03/06 13:05:57
%%abc-copyright Copyright 2016, Kolb, Paul
%%abc-edited-by Zybina, Karina
%%humdrum-veritas 290938254
%%humdrum-veritas-data 1188421726
%%linebreak <none>
%%barnumbers 0
L: 1/4
M: 2/2
N: Derived from Gas0201c-Missa_brevis-Credo.krn
%%staves [1 2 3 4]
V: 1 clef=treble
V: 2 clef=treble-8
V: 3 clef=treble-8
V: 4 clef=bass
K: F
[V:1] G2BA | 
[V:2] z4 | 
[V:3] g2gf | 
[V:4] z4 | 
[V:1] Bcd2 | 
[V:2] z4 | 
[V:3] g_ed2 | 
[V:4] z4 | 
[V:1] ddd3/c/ | 
[V:2] z4 | 
[V:3] dgf3/_e/ | 
[V:4] z4 | 
[V:1] BA>GG- | 
[V:2] z4 | 
[V:3] dcB2 | 
[V:4] z4 | 
[V:1] G^FG2 | 
[V:2] z2zG | 
[V:3] A2G2 | 
[V:4] z2zG, | 
[V:1] z4 | 
[V:2] BBBA | 
[V:3] z4 | 
[V:4] G,G,G,F, | 
[V:1] z4 | 
[V:2] Bcd3/e/ | 
[V:3] z4 | 
[V:4] G,_E,D,2 | 
[V:1] z4 | 
[V:2] f/g/aba | 
[V:3] z4 | 
[V:4] zD2C | 
[V:1] z4 | 
[V:2] agg^f | 
[V:3] z4 | 
[V:4] DB,A,A, | 
[V:1] z2dc | 
[V:2] g2z2 | 
[V:3] ddde | 
[V:4] G,2z2 | 
[V:1] defe | 
[V:2] z4 | 
[V:3] fedg | 
[V:4] z4 | 
[V:1] dgfe | 
[V:2] z4 | 
[V:3] fedc | 
[V:4] z4 | 
[V:1] de2d | 
[V:2] a>aaa | 
[V:3] dcd2 | 
[V:4] D,A,F,D, | 
[V:1] d^cd2 | 
[V:2] a2fg | 
[V:3] e2d2 | 
[V:4] A,2B,G, | 
[V:1] z4 | 
[V:2] e^fg2 | 
[V:3] z4 | 
[V:4] A,A,G,3/F,/ | 
[V:1] z2dd | 
[V:2] z4 | 
[V:3] dddd | 
[V:4] D,4 | 
[V:1] ddf2 | 
[V:2] z2dd | 
[V:3] f2dd | 
[V:4] z4 | 
[V:1] dddd | 
[V:2] ddf2 | 
[V:3] BBdd | 
[V:4] z2B,,B,, | 
[V:1] cBBA | 
[V:2] dfff | 
[V:3] d2c2 | 
[V:4] B,,B,,F,2 | 
[V:1] B2z2 | 
[V:2] d>cAc- | 
[V:3] B2z2 | 
[V:4] G,G,F,_E, | 
[V:1] z4 | 
[V:2] cd>cB- | 
[V:3] z2f2 | 
[V:4] F,D,F,D, | 
[V:1] z2f2 | 
[V:2] BAB2 | 
[V:3] _e_ed2 | 
[V:4] C,2B,,2 | 
[V:1] _eedc | 
[V:2] zcde | 
[V:3] ccBA | 
[V:4] z4 | 
[V:1] dBAc- | 
[V:2] def2 | 
[V:3] BGF2 | 
[V:4] z4 | 
[V:1] c/B/A/G/FG- | 
[V:2] ccdc- | 
[V:3] z4 | 
[V:4] z4 | 
[V:1] GF2E | 
[V:2] cB/A/GG | 
[V:3] zFBB | 
[V:4] z4 | 
[V:1] F2zF | 
[V:2] FFBB | 
[V:3] ccd2 | 
[V:4] z4 | 
[V:1] BBcc | 
[V:2] Gg2^f | 
[V:3] BGA2 | 
[V:4] z4 | 
[V:1] d>cAG | 
[V:2] g2z2 | 
[V:3] G/A/B/c/d_e | 
[V:4] G,2F,_E, | 
[V:1] B2A2 | 
[V:2] z4 | 
[V:3] dg2^f | 
[V:4] G,2D,2 | 
[V:1] G2z2 | 
[V:2] ggff | 
[V:3] g2z2 | 
[V:4] z4 | 
[V:1] z4 | 
[V:2] g2dd | 
[V:3] z4 | 
[V:4] G,G,F,F, | 
[V:1] z4 | 
[V:2] ddd/e/f/g/ | 
[V:3] z4 | 
[V:4] G,2D,D, | 
[V:1] z4 | 
[V:2] a>gfe- | 
[V:3] z4 | 
[V:4] D,D,D,G,- | 
[V:1] z4 | 
[V:2] ed2^c | 
[V:3] z4 | 
[V:4] G,F,E,2 | 
[V:1] zAAA | 
[V:2] d2z2 | 
[V:3] zfff | 
[V:4] D,2z2 | 
[V:1] AB>Ad- | 
[V:2] z4 | 
[V:3] fg2f | 
[V:4] z4 | 
[V:1] d^cd2 | 
[V:2] A2BB | 
[V:3] e2d2 | 
[V:4] z4 | 
[V:1] z4 | 
[V:2] Ad2e | 
[V:3] cAB3/A/ | 
[V:4] F,2G,G, | 
[V:1] z4 | 
[V:2] f3e/d/ | 
[V:3] F2z2 | 
[V:4] D,F,2G, | 
[V:1] z2A2 | 
[V:2] ce2d- | 
[V:3] z2zF | 
[V:4] A,3G,/F,/ | 
[V:1] GGF2 | 
[V:2] d^cd2 | 
[V:3] GGAA | 
[V:4] E,E,D,D, | 
[V:1] GGF2 | 
[V:2] ccd2 | 
[V:3] GGA2 | 
[V:4] E,2D,D, | 
[V:1] GGF2 | 
[V:2] ccd3/c/ | 
[V:3] GGA2 | 
[V:4] E,2D,D, | 
[V:1] GBA/G/F/E/ | 
[V:2] B/A/GA2 | 
[V:3] GGc2 | 
[V:4] E,G,F,/E,/D,/C,/ | 
[V:1] DG2^F | 
[V:2] Bd>cA | 
[V:3] dBA2 | 
[V:4] B,,>C,D,2 | 
[V:1] G2B2 | 
[V:2] B2zg | 
[V:3] G2z2 | 
[V:4] z4 | 
[V:1] BABG | 
[V:2] gfge | 
[V:3] z4 | 
[V:4] z4 | 
[V:1] A2AB- | 
[V:2] f2fg- | 
[V:3] z4 | 
[V:4] z4 | 
[V:1] B/B/cA2 | 
[V:2] g/g/a^f2 | 
[V:3] z4 | 
[V:4] z4 | 
[V:1] Gzz2 | 
[V:2] gzz2 | 
[V:3] zB2A | 
[V:4] zG,2F, | 
[V:1] z4 | 
[V:2] z4 | 
[V:3] BABG | 
[V:4] G,F,G,E, | 
[V:1] z2B2- | 
[V:2] z2f2- | 
[V:3] A2d2- | 
[V:4] D,2B,,3/C,/ | 
[V:1] BAGA- | 
[V:2] ff_ef | 
[V:3] dcBc- | 
[V:4] D,/E,/F,G,F, | 
[V:1] AG2^F | 
[V:2] _ecd2 | 
[V:3] c/B/GA2 | 
[V:4] C,_E,D,2 | 
[V:1] G4 ||  
[V:2] d4 ||  
[V:3] G4 ||  
[V:4] G,4 ||  
[V:1] [M:2/2]GGdd | 
[V:2] [M:2/2]ddBB | 
[V:3] [M:2/2]z2GG | 
[V:4] [M:2/2]G,G,G,G, | 
[V:1] f>ed2 | 
[V:2] A>AA2 | 
[V:3] ddf3/e/ | 
[V:4] D,>D,D,2 | 
[V:1] fe2d- | 
[V:2] Ac2A- | 
[V:3] dg2f | 
[V:4] D,C,2D, | 
[V:1] d^cdB | 
[V:2] Aafg | 
[V:3] e2dd | 
[V:4] A,2B,G, | 
[V:1] B>BAB- | 
[V:2] d/e/f/g/ag | 
[V:3] d>ddd- | 
[V:4] G,>G,F,G, | 
[V:1] BA2G | 
[V:2] f>ede | 
[V:3] dcB2 | 
[V:4] D,F,G,E, | 
[V:1] A2AB | 
[V:2] c2AF | 
[V:3] A2cd | 
[V:4] F,2F,D, | 
[V:1] c/B/A/G/BA- | 
[V:2] GAFf- | 
[V:3] _e/d/c/B/dc | 
[V:4] C,F,B,,F,- | 
[V:1] AG2^F | 
[V:2] f/_e/d2d | 
[V:3] dBA2 | 
[V:4] F,G,D,2 | 
[V:1] G2GB- | 
[V:2] d2gg- | 
[V:3] G2z2 | 
[V:4] z4 | 
[V:1] BcA2 | 
[V:2] ga^f2 | 
[V:3] z4 | 
[V:4] z4 | 
[V:1] G2z2 | 
[V:2] g2z2 | 
[V:3] zBBc | 
[V:4] zG,G,A, | 
[V:1] z2zG | 
[V:2] z2zg | 
[V:3] A2Gd | 
[V:4] ^F,2G,G, | 
[V:1] B2cd- | 
[V:2] g2gf | 
[V:3] d2_ef- | 
[V:4] G,2_E,D, | 
[V:1] dB2A | 
[V:2] df>_ec | 
[V:3] fdc2 | 
[V:4] B,,2F,2 | 
[V:1] B4 | 
[V:2] d2BB | 
[V:3] B>AG2 | 
[V:4] B,,2z2 | 
[V:1] z4 | 
[V:2] dddf- | 
[V:3] F2z2 | 
[V:4] B,,B,,D,D, | 
[V:1] z4 | 
[V:2] fe/d<cd/ | 
[V:3] z4 | 
[V:4] D,F,2E,/D,/ | 
[V:1] z4 | 
[V:2] e/f/g2e | 
[V:3] z4 | 
[V:4] C,>D, E,/F,/G,- | 
[V:1] z4 | 
[V:2] dgfe | 
[V:3] z4 | 
[V:4] G,F,/E,/D,G, | 
[V:1] z4 | 
[V:2] df2e/d/ | 
[V:3] z4 | 
[V:4] F,>E,D,A,- | 
[V:1] z4 | 
[V:2] cd2^c | 
[V:3] z4 | 
[V:4] A,G,/F,/E,2 | 
[V:1] zddc | 
[V:2] d2z2 | 
[V:3] zdfe | 
[V:4] D,2z2 | 
[V:1] dBAG | 
[V:2] z4 | 
[V:3] ddcB | 
[V:4] z4 | 
[V:1] AAG^F | 
[V:2] z4 | 
[V:3] AcBA | 
[V:4] z4 | 
[V:1] GGF_E | 
[V:2] z4 | 
[V:3] GGBc | 
[V:4] z4 | 
[V:1] DF2G | 
[V:2] z4 | 
[V:3] d2B2 | 
[V:4] B,,B,,D,_E, | 
[V:1] AB2A- | 
[V:2] fdgf | 
[V:3] Ad2c | 
[V:4] F,G,>D,F, | 
[V:1] AGA2 | 
[V:2] d>efa | 
[V:3] B2A2 | 
[V:4] G,G,F,2 | 
[V:1] BABA | 
[V:2] gfgf | 
[V:3] dcdc | 
[V:4] G,A,G,A, | 
[V:1] BABA- | 
[V:2] gfge | 
[V:3] dcdc- | 
[V:4] G,A,G,A, | 
[V:1] AG2^F | 
[V:2] fd3 | 
[V:3] cGA2 | 
[V:4] F,G,D,2 | 
[V:1] G2z2 | 
[V:2] d2gg | 
[V:3] G2BB | 
[V:4] z2G,G, | 
[V:1] GGB3/A/ | 
[V:2] b>agf/e/ | 
[V:3] d>dd2 | 
[V:4] G,>G,G,2- | 
[V:1] GF/E/D2 | 
[V:2] d2gg | 
[V:3] z2BB | 
[V:4] G,2G,G, | 
[V:1] GGB3/A/ | 
[V:2] b>agf/e/ | 
[V:3] d>dd2 | 
[V:4] G,>G,G,2 | 
[V:1] GF/E/D2 | 
[V:2] d2z2 | 
[V:3] z2BB | 
[V:4] G,B,B,B,, | 
[V:1] BBd3/c/ | 
[V:2] z4 | 
[V:3] ddBA/G/ | 
[V:4] B,,4 | 
[V:1] BA/G/FB- | 
[V:2] z4 | 
[V:3] Ff2d | 
[V:4] B,,2B,,/C,/D,/_E,/ | 
[V:1] BAB2 | 
[V:2] z2dd | 
[V:3] c2B2 | 
[V:4] F,2B,,2 | 
[V:1] z4 | 
[V:2] f>edc/B/ | 
[V:3] z4 | 
[V:4] D,D,F,F, | 
[V:1] z4 | 
[V:2] Af2g- | 
[V:3] z4 | 
[V:4] F,>G,A,B,- | 
[V:1] z4 | 
[V:2] g/f/e/d/ed- | 
[V:3] z4 | 
[V:4] B,/A,/G,2F, | 
[V:1] z4 | 
[V:2] d^cd2- | 
[V:3] z4 | 
[V:4] E,2D,G, | 
[V:1] zddd | 
[V:2] d2z2 | 
[V:3] z2zf | 
[V:4] G,G,D,D, | 
[V:1] BBc3/B/ | 
[V:2] zdgg | 
[V:3] ggee | 
[V:4] G,G,C,2 | 
[V:1] A2BB | 
[V:2] c2BB | 
[V:3] ffd2 | 
[V:4] F,F,G,G, | 
[V:1] GGA2 | 
[V:2] ccA2 | 
[V:3] _e_ecc | 
[V:4] C,2F,2 | 
[V:1] FFGG | 
[V:2] Ad2d | 
[V:3] d2BB | 
[V:4] D,D,G,2 | 
[V:1] EA2G- | 
[V:2] gf>_ed- | 
[V:3] cccB | 
[V:4] C,F,2G, | 
[V:1] G^FG2 | 
[V:2] ddB2 | 
[V:3] A2G2 | 
[V:4] D,2z2 | 
[V:1] z4 | 
[V:2] FFG/F/B- | 
[V:3] z4 | 
[V:4] D,D,_E,/D,/C,/B,,/ | 
[V:1] z2FF | 
[V:2] BAB2 | 
[V:3] z2dd | 
[V:4] C,C,B,,2 | 
[V:1] G/F/B2A | 
[V:2] z4 | 
[V:3] _e/d/c/B/c2 | 
[V:4] z4 | 
[V:1] BBBB | 
[V:2] z4 | 
[V:3] BBde | 
[V:4] z4 | 
[V:1] A/B/c/d/ef | 
[V:2] z4 | 
[V:3] f2ed | 
[V:4] z4 | 
[V:1] ed2^c | 
[V:2] z4 | 
[V:3] g>fe2 | 
[V:4] z4 | 
[V:1] d2z2 | 
[V:2] zddc | 
[V:3] d2z2 | 
[V:4] zD,F,F, | 
[V:1] z4 | 
[V:2] BBAd- | 
[V:3] z4 | 
[V:4] G,G,F,B,- | 
[V:1] z4 | 
[V:2] df>ed/c/ | 
[V:3] z4 | 
[V:4] B,A,/G,/F,B,/A,/ | 
[V:1] z4 | 
[V:2] B/A/d2^c | 
[V:3] z4 | 
[V:4] G,/F,/G,E,2 | 
[V:1] [M:3/2]z2z2d2 | 
[V:2] [M:3/2]d4d2 | 
[V:3] [M:3/2]z2z2B2 | 
[V:4] [M:3/2]D,4G,2 | 
[V:1] d4c2 | 
[V:2] d2>e2f2 | 
[V:3] B4c2 | 
[V:4] G,2B,2A,2 | 
[V:1] B4G2 | 
[V:2] g4G2 | 
[V:3] d2B2c2 | 
[V:4] G,4_E,2 | 
[V:1] F4G2 | 
[V:2] A2>B2c2 | 
[V:3] d4_e2 | 
[V:4] D,4C,2 | 
[V:1] B4A2 | 
[V:2] f2f4 | 
[V:3] d2c4 | 
[V:4] B,,2F,4 | 
[V:1] B4z2 | 
[V:2] d4z2 | 
[V:3] B6 | 
[V:4] B,,6 | 
[V:1] B2>A2BA | 
[V:2] g2>f2gf | 
[V:3] z6 | 
[V:4] z6 | 
[V:1] B4A2 | 
[V:2] g4f2 | 
[V:3] z6 | 
[V:4] z6 | 
[V:1] B4A2 | 
[V:2] f4f2 | 
[V:3] d4c2 | 
[V:4] B,,4F,2 | 
[V:1] G4^F2 | 
[V:2] d4d2 | 
[V:3] B2A4 | 
[V:4] G,2D,4 | 
[V:1] G4z2 | 
[V:2] z2z2d2 | 
[V:3] G4z2 | 
[V:4] z2z2B,2 | 
[V:1] z6 | 
[V:2] e2f2g2 | 
[V:3] z6 | 
[V:4] C2A,2G,2 | 
[V:1] DDEEF2 | 
[V:2] z6 | 
[V:3] BBccA2 | 
[V:4] z6 | 
[V:1] G4B2 | 
[V:2] z2z2d3/e/ | 
[V:3] G4G2 | 
[V:4] z2z2G,2 | 
[V:1] A2G4 | 
[V:2] f2g2G2 | 
[V:3] A2B2c2 | 
[V:4] F,2_E,4 | 
[V:1] [M:2/2]F4 | 
[V:2] [M:2/2]A4 | 
[V:3] [M:2/2]d4 | 
[V:4] [M:2/2]D,4 | 
[V:1] z4 | 
[V:2] zGB2 | 
[V:3] z4 | 
[V:4] z2zG, | 
[V:1] z4 | 
[V:2] GGdd | 
[V:3] z2zG | 
[V:4] B,2G,G, | 
[V:1] z2zG | 
[V:2] d2_e2 | 
[V:3] B2GG | 
[V:4] G,G,_E,3/D,/ | 
[V:1] B2GG | 
[V:2] d2c2 | 
[V:3] dd_e2 | 
[V:4] B,,2C,2 | 
[V:1] ddd3/c/ | 
[V:2] F2GB | 
[V:3] ddB/c/d/_e/ | 
[V:4] B,,2z2 | 
[V:1] A/G/B2A | 
[V:2] Ff3 | 
[V:3] f_e/d/c2 | 
[V:4] zB,,F,2 | 
[V:1] B>cde- | 
[V:2] dBA/B/c- | 
[V:3] zgfg- | 
[V:4] G,>F,D,C,- | 
[V:1] ed2^c | 
[V:2] cA2c | 
[V:3] g/f/de2 | 
[V:4] C,D,A,2 | 
[V:1] dBcA | 
[V:2] Bdc2 | 
[V:3] dgef | 
[V:4] B,G,A,F, | 
[V:1] BGA/G/F/E/ | 
[V:2] zBAd- | 
[V:3] decd | 
[V:4] G,E,F,D, | 
[V:1] DG2^F | 
[V:2] d_ed2 | 
[V:3] BcA2 | 
[V:4] G,C,D,2 | 
[V:1] G4- | 
[V:2] B3c- | 
[V:3] G4- | 
[V:4] z_E,2C,- | 
[V:1] G4 | 
[V:2] cd_e2 | 
[V:3] G4 | 
[V:4] C,B,,C,2 | 
[V:1] G4 |]  
[V:2] d4 |]  
[V:3] G4 |]  
[V:4] G,4 |]  


